X:7247
T:the Ragged Tailor
O:england
R:Reel
M:C
A:Westmorland
N:P11 1/3
K:G
G2|GBAc Bdc2|cAFA cAAB|GBAc Bdg2|gedc BGG2:|
|:B/2c/2|dcBg dBc2|cBA=f cAB2|\
GBAc Bdg2|gedc BGG2:|


